!!!COM: Bach, Johann Sebastian
!!!CDT: 1685/3//-1750/7/28/
!!!OTL@@DE: Du Lebensfuerst, Herr Jesu Christ
!!!AGN: 4-Part Chorale
!!!SCT: Erk 361
!!!SCT: BWV 248
!!!YEC: Copyright 1994, David Huron
!!!YEC: Changes/Additions 2001 by Craig Stuart Sapp
!!!YEN: United States of America
!!!SMA: 371 Bach Chorales, edited by Ludwig Erk, C.F. Peters
!!!PDT: 1850, 1865
!!!ONB: Harmony and Root analysis done manually
**kern	**kern	**kern	**kern	**root	**harm	**kern
!bass	!tenor	!alto	!soprno	!	!	!
*Iorgan	*Iorgan	*Iorgan	*Iorgan	*Iorgan	*	*Iorgan
*M4/4	*M4/4	*M4/4	*M4/4	*M4/4	*M4/4	*M4/4
*met(C)	*met(C)	*met(C)	*met(C)	*met(C)	*met(C)	*met(C)
*MM60	*MM60	*MM60	*MM60	*MM60	*MM60	*MM60
*k[f#]	*k[f#]	*k[f#]	*k[f#]	*k[f#]	*k[f#]	*k[f#]
*G:	*G:	*G:	*G:	*G:	*G:	*G:
*>[A,A,B]	*>[A,A,B]	*>[A,A,B]	*>[A,A,B]	*>[A,A,B]	*>[A,A,B]	*>[A,A,B]
*>A	*>A	*>A	*>A	*>A	*>A	*>A
8G	4B	4d	4g	4GG	I	4G 4b 4dd
8F#	.	.	.	.	.	.
=1	=1	=1	=1	=1	=1	=1
4E	8B	4e	4g	4EE	vi	4E 4g 4b
.	4c	.	.	.	.	.
4D	.	4f#	4a	4DD	V7	4D 4f# 4a 4cc
.	8d	.	.	.	.	.
4G	8B	8d	8b	8GG	I	8G 8b 8dd
.	8A	8e	8cc#	8AA	V7d/V	8a 8cc# 8ee 8G
8F#	4A	4f#	4dd	4DD	Vb	4d 4F# 4a
8G	.	.	.	.	.	.
=2	=2	=2	=2	=2	=2	=2
4A	4A	8e	4dd	4DD	Vc	4d 4f# 4A
.	.	8f#	.	.	.	.
4AA	4A	4g	4cc#	4AA	V7/V	4A 4cc# 4ee 4gg
4D;	4A;	4f#;	4dd;	4DD;	V;	4D; 4f#; 4a;
4D#	8B	4f#	4b	4BB	V/vi	4B 4dd# 4ff#
.	8A	.	.	.	.	.
=3	=3	=3	=3	=3	=3	=3
8E	8G	4e	4ccn	4CC	IVb	4c 4E 4g
8F#	8A	.	.	.	.	.
8G	8B	8d	4b	8GG	I	8G 8b 8dd
8C	8c	8e	.	8CC	IV7	8C 8e 8g 8b
8c	4d	4f#	4a	4DD	V7d	4d 4f# 4a 4C
8B	.	.	.	.	.	.
8A	4d	4g	4b	4GG	I	4G 4b 4dd
8G	.	.	.	.	.	.
=4	=4	=4	=4	=4	=4	=4
4d	4.d	4g	2a	2DD	V	2D 2f# 2a
4D	.	4f#	.	.	.	.
.	8c	.	.	.	.	.
4G;	4B;	4d;	4g;	4GG;	I;	4G; 4b; 4dd;
=:|!	=:|!	=:|!	=:|!	=:|!	=:|!	=:|!
*>B	*>B	*>B	*>B	*>B	*>B	*>B
4D	8d	8f#	4a	4DD	V	4D 4f# 4a
.	8e	8g	.	.	.	.
=5	=5	=5	=5	=5	=5	=5
8d	8f#	4.a	4a	4DD	V	4D 4f# 4a
8c	8e	.	.	.	.	.
4B	4d	.	4b	4GG#	viio/ii	4G# 4b 4dd
.	.	8g#	.	.	.	.
4A	4e	8a	4cc	4AA	ii	4A 4cc 4ee
.	.	8g#	.	.	.	.
4D#	4f#	4a	4cc	4DD#	viioD7/vi	4D# 4f# 4a 4cc
=6	=6	=6	=6	=6	=6	=6
4E	4B	4a	8b	4EE	vi	4E 4g 4b
.	.	.	8a	.	.	.
4E	8e	4g#	4b	4EE	V/ii	4E 4g# 4b
.	8d	.	.	.	.	.
4AA;	4c;	4e;	4a;	4AA;	ii;	4A; 4cc; 4ee;
8E	8Gn	8e	4b	8EE	vi	8E 8g 8b
8F#	8A	8d#	.	8BB	V7c/vi	8b 8dd# 8F# 8aa
=7	=7	=7	=7	=7	=7	=7
4G	8B	4e	4b	4EE	vib	4e 4G 4b
.	8c	.	.	.	.	.
4G#	8d	4e	4b	4EE	V7b/ii	4e 4G# 4b 4dd
.	8e	.	.	.	.	.
4A	4c	8e	8cc	4AA	ii	4A 4cc 4ee
.	.	8f#	8dd	.	.	.
4A#	4c#	8g	4ee	4FF#	V7b/V/vi	4f# 4A# 4cc# 4ee
.	.	8f#	.	.	.	.
=8	=8	=8	=8	=8	=8	=8
4B	4B	8f#	4ee	4BB	V/vi	4B 4dd# 4ff#
.	.	8g	.	.	.	.
4BB	4B	4a	4dd#	4BB	V7/vi	4B 4dd# 4ff# 4aa
4E;	4B;	4g;	4ee;	4EE;	vi;	4E; 4g; 4b;
8d	4d	4a	4ff#	4DD	V	4D 4f# 4a
8c	.	.	.	.	.	.
=9	=9	=9	=9	=9	=9	=9
8B	4d	8g	4gg	4GG	Ib	4g 4B 4dd
8A	.	8a	.	.	.	.
8G	4g	4b	4b	4GG	I	4G 4b 4dd
8F#	.	.	.	.	.	.
8E	8G	8b	4cc	8CC	IV7b	8c 8E 8g 8b
8F#	8A	8a	.	8FF#	viio	8F# 8a 8cc
8G	4B	8a	4b	8GG	I	8G 8b 8dd
8E	.	8g	.	8EE	vi	8E 8g 8b
=10	=10	=10	=10	=10	=10	=10
8C#	8e	2g	2a	2AA	V7b/V	2a 2C# 2ee 2gg
8BB	8d	.	.	.	.	.
8C#	8e	.	.	.	.	.
8AA	8c#	.	.	.	.	.
4D;	4d;	4f#;	4a;	4DD;	V;	4D; 4f#; 4a;
4BB	4d	8g	4dd	4GG	Ib	4g 4B 4dd
.	.	8f#	.	.	.	.
=11	=11	=11	=11	=11	=11	=11
4C	8d	4e	4ee	4CC	IV	4C 4e 4g
.	8c	.	.	.	.	.
4D	8c	4f#	4dd	4DD	V7	4D 4f# 4a 4cc
.	8B	.	.	.	.	.
8E	8B	8g	4cc	8CC	IV7b	8c 8E 8g 8b
8F#	8A	8a	.	8FF#	vii	8F# 8a 8cc#
4G	4G	4d	8b	4GG	I	4G 4b 4dd
.	.	.	8cc	.	.	.
=12	=12	=12	=12	=12	=12	=12
4C	8G	4e	2a	4AA	ii7b	4a 4C 4ee 4gg
.	16F#	.	.	.	.	.
.	16E	.	.	.	.	.
4D	4F#	4d	.	4DD	V	4D 4f# 4a
4GG;	4B;	4d;	4g;	4GG;	I;	4G; 4b; 4dd;
==	==	==	==	==	==	==
*-	*-	*-	*-	*-	*-	*-
